!!!COM: Music21
!!!OTL: barndance_A-Trip-To-Bavaria
!!!OMV: barndance_A-Trip-To-Bavaria
**kern
*clefG2
*k[]
*M4/4
=1
8g
=
8gL
8ccJ
8ccL
8eeJ
8eeL
8ggJ
4gg
=
8.ggL
16ggJk
8.aaL
16eeJk
8ggL
8ffJ
8ggL
8ffJ
=
8gL
8bJ
8bL
8ddJ
8ddL
8ggJ
4gg
=
8.bbL
16cccJk
8.bbL
16cccJk
8aaL
8ggJ
8aaL
8ggJ
!!linebreak:original
=
8gL
8ccJ
8ccL
8eeJ
8eeL
8ggJ
4gg
=
8.ggL
16ggJk
8.bbL
16cccJk
8bbL
8aaJ
8.aaL
16cccJk
=
8bbL
8aaJ
8bbL
8aaJ
8aaL
8ggJ
8aaL
8ggJ
=
8.gg
16ff
8ee
16.ddLL
32ddJJk
[4cc
8cc]
8ryy
=||
*M4/4
8g
!!linebreak:original
=
8gL
8ccJ
8ccL
8eeJ
8eeL
8ggJ
4gg
=
8.ggL
16ggJk
8.aaL
16eeJk
8ggL
8ffJ
8ggL
8ffJ
=
8gL
8bJ
8bL
8ddJ
8ddL
8ggJ
4gg
=
8.bbL
16cccJk
8.bbL
16cccJk
8aaL
8ggJ
8aaL
8ggJ
=
8gL
8ccJ
8ccL
8eeJ
8eeL
8ggJ
4gg
!!linebreak:original
=
8.ggL
16ggJk
8.bbL
16cccJk
8bbL
8aaJ
8.aaL
16cccJk
=
8bbL
8aaJ
8bbL
8aaJ
8aaL
8ggJ
8aaL
8ggJ
=
8.gg
16ff
8ee
16.ddLL
32ddJJk
[4cc
8cc]
8ryy
=||
16.gLL
32gJJk
2..ryy
=
8gL
8ccJ
8.eeL
16ccJk
8gL
8ccJ
4ee
!!linebreak:original
=
4gg
8.aaL
16ggJk
8ggL
8ffJ
4ff
=
8gL
8bJ
8.ddL
16bJk
8gL
8bJ
8ddL
8ggJ
=
8.bbL
16cccJk
8.bbL
16cccJk
8aaL
8ggJ
8aaL
8ggJ
=
8gL
8ccJ
8.eeL
16ccJk
8gL
8ccJ
4ee
!!linebreak:original
=
4gg
8.cccL
16bbJk
8bbL
8aaJ
8.aaL
16cccJk
=
8bbL
8aaJ
8bbL
8aaJ
8aaL
8ggJ
8aaL
8ggJ
=
8.gg
16ff
8ee
16.ddLL
32ddJJk
8cc
8ccL
8ccJ
8ryy
=||
16.gLL
32gJJk
2..ryy
=
8gL
8ccJ
8.eeL
16ccJk
8gL
8ccJ
4ee
!!linebreak:original
=
4gg
8.aaL
16ggJk
8ggL
8ffJ
4ff
=
8gL
8bJ
8.ddL
16bJk
8gL
8bJ
8ddL
8ggJ
=
8.bbL
16cccJk
8.bbL
16cccJk
8aaL
8ggJ
8aaL
8ggJ
=
8gL
8ccJ
8.eeL
16ccJk
8gL
8ccJ
4ee
!!linebreak:original
=
4gg
8.cccL
16bbJk
8bbL
8aaJ
8.aaL
16cccJk
=
8bbL
8aaJ
8bbL
8aaJ
8aaL
8ggJ
8aaL
8ggJ
=
8.gg
16ff
8ee
16.ddLL
32ddJJk
8cc
8ccL
8ccJ
8ryy
=||
*-
